X:1
T:12 New Songs by some of the best and best-known British composers
T:A Song of the South
T:To H.R.H. The Princess Louise (Marchioness of Lorne) 
T:12 New Songs
T:Hamish MacCunn
T:7. A Song of the South
T:Harold Boulton 
T:Creative Commons copyright waiver (CC0 1.0 Universal)
T:Creative Commons copyright waiver (CC0 1.0 Universal)
T:Creative Commons copyright waiver (CC0 1.0 Universal)
T:Creative Commons copyright waiver (CC0 1.0 Universal)
T:Creative Commons copyright waiver (CC0 1.0 Universal)
T:Creative Commons copyright waiver (CC0 1.0 Universal)
C:Hamish MacCunn
Z:Harold Boulton (also series editor)
Z:Creative Commons copyright waiver (CC0 1.0 Universal)
%%score 1 { 2 | 3 }
L:1/8
Q:1/4=100
M:4/4
K:Db
V:1 treble nm="Voice"
V:2 treble nm="Piano"
V:3 bass 
V:1
"^Con moto""^NOTE to Transcriber and Reviewer\n:    \nWhere there is no requirement to use both piano staves\n, you are recommended to input\nall the piano notes in the bass, and then move notes to the treble as needed using cross-staff notation (see example in mm.1-2 below). \nThat way you can put the dynamics and hairpins in the bass and move them above the staff so they match the IMSLP score layout. \nIf you input some piano notes in the treble, you would need invisible rests in the bass to position any pedal marks and hairpins.\n(Many thanks to @mike320 for this tip!)\n" z8 | %1
w: |
 A2 F3/2 F/ d2 A2 |!<(! g3!<)! f e2 (3(de) d | c2 B2 d3 c | (B2 A4) F E | F2 D2 A3 F | %6
w: I have a gar- den|beaut- i- ful By * a|sea of peer- less|blue; _ There are|sun- ny slopes and|
 d2 c2"^cresc." e2 =d3/2 d/ | f2!<(! e2!<)!!>(! g3!>)! f | d4 z4 | z8 | z8 | z8 | z8 | z2 z4 (FE) | %14
w: grott- oes cool, And a|stream- let wan- ders|through.|||||And *|
 F2 D2 A3 F | d3 c e3 z | z8 | z8 | z8 | z8 | z8 | z8 | z8 | z2!f! e4"^dim." B3/2 B/ | c2 c2 d3 A | %25
w: soft winds rust- ling|through the trees,||||||||Come with the|love- light in your|
 B4 z4 | z8 | z8 | z8 | z8 | z8 | z8 | z8 |"^con passione" A3 F/ F/ d2 A2 | %34
w: eyes,||||||||Thrill’d by the flow- er-|
!<(! g3!<)! f e2 (3z z z | z8 | z8 | z8 | z8 |"^rall." f2 e2!f! a3 g | f4 z4 | %41
w: scen- ted gale,|||||faint, dear heart, for|you.|
[Q:1/4=71]"^Adagio"!f! !>!g3 f3/4 f/4 (eBA) G | z8 | z8 | z8 | z8 | z8 | z8 | z8 |] %49
w: Shine through the air, _ _ a||||||||
V:2
 x8 | x8 | z8 | z8 | z8 | z8 | z8 | z8 | z8 | z8 | z8 | z8 | z8 | z8 | z8 | z8 | z8 | z8 | z8 | %19
 z8 | z8 | z8 | z8 | z8 | z8 | z8 | z8 | z8 | z8 | z8 | z8 | z8 | x8 | z8 | z8 | z8 | z8 | z8 | %38
 z8 | z8 | z2 z2 z2[K:bass] (3B,=A,_A, | %41
"^Adagio"[I:staff +1] (11:8:11(E,,/4B,,/4[I:staff -1]G,/4B,/4[K:treble]E/4G/4B/4e/4g/4b/4e'/4 g') z z4 | %42
 z8 | z8 | z8 | z8 | z8 | z8 | z8 |] %49
V:3
!ped! (3([D,F,]A,D[I:staff -1] (3FAd)!ped-up!!ped![I:staff +1] (3([D,F,]A,D[I:staff -1] (3FAd)!ped-up! | %1
!ped![I:staff +1] (3([D,F,]A,D[I:staff -1] (3FAd)!ped-up!!ped![I:staff +1] (3([D,F,]A,D[I:staff -1] (3FAd)!ped-up! | %2
[I:staff +1] z8 | z8 | z8 | z8 | z8 | z8 | z8 | z8 | z8 | z8 | z8 | z8 | z8 | z8 | z8 | z8 | z8 | %19
 z8 | z8 | z8 | z8 | z8 | z8 | z8 | z8 | z8 | z8 | z8 | z8 | z8 | %32
 (3([A,,D,]F,B,[I:staff -1] (3DFB)[I:staff +1] (3([A,,E,]_G,C[I:staff -1] (3E_Gc) | %33
[I:staff +1] z8 | z8 | z8 | z8 | z8 | z8 | z8 | z8 |!ped! x2 z2!ped-up! z4 | z8 | z8 | z8 | z8 | %46
 z8 | z8 | z8 |] %49

